public/img/soleil.svg

<svg width="91" height="136" viewBox="0 0 91 136" fill="none" xmlns="http://www.w3.org/2000/svg">
    <path
        d="M40.5673 108.944C40.9946 109.946 41.4148 111.119 41.807 112.327L43.3805 111.903C42.9721 110.64 42.5265 109.39 42.0651 108.308C41.7879 107.658 41.514 107.031 41.2468 106.42C40.1768 103.971 39.2145 101.769 38.5789 99.3193C37.8129 96.3666 37.6259 94.7214 37.478 93.2255C37.469 93.1335 37.46 93.0419 37.4511 92.9506L37.451 92.95C37.3114 91.522 37.1758 90.1359 36.5857 87.8674C36.4727 87.4332 36.0284 87.1725 35.5933 87.2853C35.1582 87.398 34.8971 87.8415 35.0101 88.2757C35.5679 90.42 35.6934 91.703 35.8311 93.1109C35.84 93.2016 35.8489 93.2929 35.858 93.385C36.0116 94.9384 36.2102 96.6706 37.003 99.7266C37.674 102.313 38.7006 104.66 39.7771 107.122C40.039 107.721 40.3039 108.327 40.5673 108.944Z"
        fill="#FFE4BF" />
    <path
        d="M53.4341 114.89C53.7748 115.57 54.0952 116.371 54.3856 117.2L55.9593 116.777C55.6574 115.91 55.3181 115.056 54.9502 114.322C54.7292 113.882 54.5096 113.457 54.2954 113.043C53.4376 111.385 52.6662 109.894 52.2339 108.201C51.713 106.161 51.6575 105.006 51.6288 103.954C51.6271 103.889 51.6254 103.825 51.6237 103.761L51.6237 103.76C51.5978 102.756 51.5726 101.781 51.1708 100.214C51.0939 99.9139 50.679 99.7629 50.2442 99.8767C49.8094 99.9905 49.5193 100.326 49.5962 100.626C49.976 102.107 49.9994 103.01 50.025 104C50.0266 104.064 50.0283 104.128 50.0301 104.193C50.0599 105.285 50.12 106.501 50.6592 108.613C51.1155 110.399 51.9386 111.989 52.8017 113.656C53.0117 114.062 53.2241 114.472 53.4341 114.89Z"
        fill="#FFE4BF" />
    <path
        d="M61.7294 107.32C62.1567 108.321 62.5769 109.494 62.9691 110.703L64.5426 110.278C64.1342 109.015 63.6886 107.765 63.2272 106.683C62.95 106.033 62.6761 105.407 62.4089 104.795C61.3389 102.346 60.3766 100.144 59.741 97.6946C58.975 94.7419 58.788 93.0967 58.6402 91.6007C58.6311 91.5087 58.6221 91.4172 58.6132 91.3258L58.6131 91.3252C58.4735 89.8972 58.3379 88.5112 57.7478 86.2427C57.6348 85.8084 57.1905 85.5478 56.7554 85.6605C56.3203 85.7733 56.0592 86.2167 56.1722 86.651C56.73 88.7953 56.8555 90.0783 56.9932 91.4861C57.0021 91.5769 57.0111 91.6681 57.0202 91.7602C57.1737 93.3137 57.3723 95.0459 58.1651 98.1018C58.8361 100.688 59.8627 103.036 60.9392 105.497C61.2011 106.096 61.466 106.702 61.7294 107.32Z"
        fill="#FFE4BF" />
    <path
        d="M63.9065 67.2917C63.9065 77.4985 55.6161 85.7728 45.3895 85.7728C35.1629 85.7728 26.8726 77.4985 26.8726 67.2917C26.8726 57.0849 35.1629 48.8107 45.3895 48.8107C55.6161 48.8107 63.9065 57.0849 63.9065 67.2917Z"
        fill="#FED992" />
    <path fill-rule="evenodd" clip-rule="evenodd"
        d="M65.3233 67.2918C65.3233 78.2836 56.3961 87.1895 45.3897 87.1895C34.3832 87.1895 25.4561 78.2836 25.4561 67.2918C25.4561 56.3 34.3832 47.394 45.3897 47.394C56.3961 47.394 65.3233 56.3 65.3233 67.2918ZM45.3897 85.7728C55.6163 85.7728 63.9066 77.4986 63.9066 67.2918C63.9066 57.085 55.6163 48.8107 45.3897 48.8107C35.163 48.8107 26.8727 57.085 26.8727 67.2918C26.8727 77.4986 35.163 85.7728 45.3897 85.7728Z"
        fill="#274430" />
    <path
        d="M61.9065 67.2917C61.9065 76.3903 54.5152 83.7728 45.3895 83.7728C36.2638 83.7728 28.8726 76.3903 28.8726 67.2917C28.8726 58.1931 36.2638 50.8107 45.3895 50.8107C54.5152 50.8107 61.9065 58.1931 61.9065 67.2917Z"
        stroke="#FFA451" stroke-opacity="0.3" stroke-width="4" />
    <path
        d="M45.1147 38.8373C45.4352 38.0542 46.5649 38.0542 46.8854 38.8373L48.7791 43.4637C49.0309 44.0789 48.5693 44.7488 47.8937 44.7488H44.1063C43.4307 44.7488 42.9692 44.0789 43.221 43.4637L45.1147 38.8373Z"
        fill="#FED992" />
    <path
        d="M25.0358 47.3654C24.7077 46.5855 25.5065 45.7882 26.2879 46.1157L30.9047 48.0507C31.5186 48.3079 31.6668 49.1074 31.1891 49.5842L28.511 52.2571C28.0333 52.7339 27.2323 52.5859 26.9745 51.9733L25.0358 47.3654Z"
        fill="#FED992" />
    <path
        d="M73.8992 64.9864C74.6838 65.3063 74.6838 66.4338 73.8992 66.7537L69.2638 68.6437C68.6475 68.895 67.9762 68.4344 67.9762 67.7601V63.98C67.9762 63.3057 68.6475 62.8451 69.2638 63.0964L73.8992 64.9864Z"
        fill="#FED992" />
    <path
        d="M63.9157 45.5413C64.6971 45.2138 65.4959 46.0111 65.1678 46.791L63.2291 51.3988C62.9713 52.0115 62.1703 52.1595 61.6926 51.6827L59.0145 49.0098C58.5368 48.533 58.6851 47.7335 59.2989 47.4762L63.9157 45.5413Z"
        fill="#FED992" />
    <path
        d="M16.8799 66.7537C16.0954 66.4338 16.0954 65.3063 16.8799 64.9864L21.5154 63.0964C22.1317 62.8451 22.803 63.3057 22.803 63.98V67.7601C22.803 68.4344 22.1317 68.895 21.5154 68.6437L16.8799 66.7537Z"
        fill="#FED992" />
    <path
        d="M24.8491 87.0316C24.0677 87.3591 23.2688 86.5618 23.597 85.7819L25.5357 81.174C25.7934 80.5614 26.5945 80.4134 27.0722 80.8902L29.7503 83.5631C30.228 84.0399 30.0797 84.8394 29.4659 85.0966L24.8491 87.0316Z"
        fill="#FED992" />
    <path
        d="M46.8854 95.7461C46.5649 96.5291 45.4352 96.5291 45.1147 95.7461L43.221 91.1196C42.9692 90.5045 43.4307 89.8345 44.1063 89.8345H47.8937C48.5693 89.8345 49.0309 90.5045 48.7791 91.1196L46.8854 95.7461Z"
        fill="#FED992" />
    <path
        d="M66.6067 86.3563C66.9348 87.1362 66.136 87.9335 65.3546 87.606L60.7377 85.671C60.1239 85.4138 59.9756 84.6143 60.4533 84.1375L63.1314 81.4646C63.6091 80.9878 64.4102 81.1358 64.6679 81.7485L66.6067 86.3563Z"
        fill="#FED992" />
    <path fill-rule="evenodd" clip-rule="evenodd"
        d="M48.1966 38.3007L50.0903 42.9271C50.7391 44.5122 49.5353 46.1655 47.8939 46.1655H44.1065C42.4651 46.1655 41.2612 44.5122 41.91 42.9271L43.8037 38.3007C44.6045 36.3443 47.3958 36.3443 48.1966 38.3007ZM26.8356 44.8092L31.4525 46.7442C33.0281 47.4045 33.356 49.4233 32.1901 50.5869L29.5119 53.2599C28.3498 54.4198 26.3315 54.0976 25.6689 52.5227L23.7302 47.9148C22.9068 45.9578 24.8918 43.9945 26.8356 44.8092ZM74.4343 68.0655L69.7988 69.9556C68.2206 70.5991 66.5597 69.4079 66.5597 67.7601V63.98C66.5597 62.3322 68.2206 61.1411 69.7988 61.7846L74.4343 63.6746C76.3945 64.4739 76.3945 67.2663 74.4343 68.0655ZM66.4738 47.3404L64.5351 51.9483C63.8724 53.5232 61.8542 53.8454 60.692 52.6855L58.0139 50.0125C56.848 48.8489 57.1759 46.8301 58.7515 46.1697L63.3683 44.2348C65.3122 43.4201 67.2971 45.3834 66.4738 47.3404ZM16.3452 63.6746L20.9807 61.7846C22.5589 61.1411 24.2198 62.3322 24.2198 63.98V67.7601C24.2198 69.4079 22.5589 70.5991 20.9807 69.9556L16.3452 68.0655C14.3849 67.2663 14.3849 64.4739 16.3452 63.6746ZM22.2913 85.2325L24.23 80.6247C24.8927 79.0497 26.9109 78.7276 28.0731 79.8875L30.7512 82.5604C31.9171 83.724 31.5892 85.7429 30.0136 86.4032L25.3968 88.3382C23.4529 89.1528 21.468 87.1895 22.2913 85.2325ZM43.8037 96.2828L41.91 91.6563C41.2612 90.0713 42.4651 88.4179 44.1065 88.4179H47.8939C49.5353 88.4179 50.7391 90.0713 50.0903 91.6563L48.1966 96.2828C47.3958 98.2391 44.6045 98.2391 43.8037 96.2828ZM64.8071 88.9126L60.1903 86.9776C58.6147 86.3173 58.2868 84.2985 59.4527 83.1348L62.1308 80.4619C63.293 79.302 65.3113 79.6242 65.9739 81.1991L67.9126 85.807C68.736 87.764 66.751 89.7273 64.8071 88.9126ZM46.8855 38.8373C46.565 38.0543 45.4353 38.0543 45.1148 38.8373L43.2211 43.4638C42.9693 44.0789 43.4309 44.7489 44.1065 44.7489H47.8939C48.5695 44.7489 49.031 44.0789 48.7793 43.4638L46.8855 38.8373ZM26.2881 46.1158C25.5067 45.7883 24.7078 46.5855 25.036 47.3654L26.9747 51.9733C27.2324 52.5859 28.0335 52.7339 28.5112 52.2572L31.1893 49.5842C31.667 49.1075 31.5187 48.308 30.9049 48.0507L26.2881 46.1158ZM73.8994 64.9864C74.6839 65.3063 74.6839 66.4338 73.8994 66.7537L69.2639 68.6438C68.6476 68.8951 67.9764 68.4344 67.9764 67.7601V63.98C67.9764 63.3058 68.6476 62.8451 69.2639 63.0964L73.8994 64.9864ZM65.168 46.791C65.4961 46.0111 64.6973 45.2139 63.9159 45.5413L59.2991 47.4763C58.6852 47.7336 58.5369 48.533 59.0146 49.0098L61.6928 51.6827C62.1705 52.1595 62.9715 52.0115 63.2293 51.3989L65.168 46.791ZM16.8801 66.7537C16.0955 66.4338 16.0955 65.3063 16.8801 64.9864L21.5155 63.0964C22.1318 62.8451 22.8031 63.3058 22.8031 63.98V67.7601C22.8031 68.4344 22.1318 68.8951 21.5155 68.6438L16.8801 66.7537ZM23.5971 85.7819C23.269 86.5618 24.0678 87.3591 24.8492 87.0316L29.466 85.0966C30.0799 84.8394 30.2282 84.0399 29.7505 83.5631L27.0723 80.8902C26.5946 80.4134 25.7936 80.5614 25.5358 81.1741L23.5971 85.7819ZM46.8855 95.7461C46.565 96.5291 45.4353 96.5291 45.1148 95.7461L43.2211 91.1196C42.9693 90.5045 43.4309 89.8345 44.1065 89.8345H47.8939C48.5695 89.8345 49.031 90.5045 48.7793 91.1196L46.8855 95.7461ZM65.3547 87.606C66.1361 87.9335 66.9349 87.1362 66.6068 86.3564L64.6681 81.7485C64.4103 81.1358 63.6093 80.9878 63.1316 81.4646L60.4535 84.1375C59.9758 84.6143 60.1241 85.4138 60.7379 85.6711L65.3547 87.606Z"
        fill="#274430" />
    <path
        d="M42.2956 91.4985L43.2211 91.1197L42.2956 91.4985L44.1893 96.125C44.8488 97.7362 47.1514 97.7362 47.811 96.125L49.7047 91.4985L48.7792 91.1197L49.7047 91.4985C50.2367 90.1987 49.2512 88.8346 47.8938 88.8346H44.1064C42.7491 88.8346 41.7636 90.1987 42.2956 91.4985Z"
        fill="#FED992" stroke="#274430" stroke-width="2" />
    <path
        d="M43.9426 116.033C43.768 116.792 42.7405 116.96 42.3321 116.296L39.9188 112.37C39.598 111.848 39.9178 111.169 40.5322 111.069L43.9771 110.506C44.5916 110.405 45.1114 110.946 44.9743 111.543L43.9426 116.033Z"
        fill="#FFE4BF" />
    <path
        d="M56.3465 121.091C56.1718 121.851 55.1443 122.019 54.7359 121.354L52.3226 117.428C52.0018 116.906 52.3216 116.228 52.936 116.127L56.3809 115.564C56.9954 115.464 57.5153 116.004 57.3781 116.601L56.3465 121.091Z"
        fill="#FFE4BF" />
    <path
        d="M64.9299 114.594C64.7553 115.354 63.7278 115.522 63.3194 114.857L60.9061 110.931C60.5853 110.409 60.9051 109.731 61.5195 109.63L64.9644 109.067C65.5789 108.966 66.0988 109.507 65.9616 110.104L64.9299 114.594Z"
        fill="#FFE4BF" />
    <path
        d="M59.0145 49.0098L61.6926 51.6828C62.1703 52.1595 62.9714 52.0116 63.2291 51.3989L59.2989 47.4763C58.6851 47.7336 58.5368 48.5331 59.0145 49.0098Z"
        fill="white" fill-opacity="0.3" />
    <path
        d="M44.1064 44.749H47.8938C48.5694 44.749 49.031 44.079 48.7792 43.4639H43.2211C42.9693 44.079 43.4308 44.749 44.1064 44.749Z"
        fill="white" fill-opacity="0.3" />
    <path
        d="M28.5111 52.2571L31.1892 49.5842C31.6669 49.1074 31.5187 48.3079 30.9048 48.0507L26.9746 51.9732C27.2324 52.5859 28.0334 52.7339 28.5111 52.2571Z"
        fill="white" fill-opacity="0.3" />
    <path
        d="M22.8032 67.7601V63.98C22.8032 63.3058 22.1319 62.8451 21.5156 63.0964V68.6438C22.1319 68.8951 22.8032 68.4344 22.8032 67.7601Z"
        fill="white" fill-opacity="0.3" />
    <path
        d="M29.7503 83.5631L27.0722 80.8902C26.5945 80.4134 25.7934 80.5614 25.5356 81.174L29.4659 85.0966C30.0797 84.8394 30.228 84.0399 29.7503 83.5631Z"
        fill="white" fill-opacity="0.3" />
    <path
        d="M47.8938 89.8346H44.1064C43.4308 89.8346 42.9693 90.5046 43.2211 91.1197H48.7792C49.031 90.5046 48.5694 89.8346 47.8938 89.8346Z"
        fill="white" fill-opacity="0.3" />
    <path
        d="M63.1316 81.4646L60.4535 84.1376C59.9758 84.6143 60.124 85.4138 60.7379 85.6711L64.6681 81.7485C64.4103 81.1358 63.6093 80.9879 63.1316 81.4646Z"
        fill="white" fill-opacity="0.3" />
    <path
        d="M67.9766 63.98V67.7601C67.9766 68.4344 68.6478 68.8951 69.2642 68.6438V63.0964C68.6478 62.8451 67.9766 63.3058 67.9766 63.98Z"
        fill="white" fill-opacity="0.3" />
</svg>

<svg xmlns="http://www.w3.org/2000/svg" width="91" height="136" fill="none"><path fill="#FFE4BF" d="M40.567 108.944c.428 1.002.848 2.175 1.24 3.383l1.573-.424c-.408-1.263-.854-2.513-1.315-3.595-.277-.65-.551-1.277-.818-1.888-1.07-2.449-2.032-4.651-2.668-7.1-.766-2.953-.953-4.599-1.101-6.094l-.027-.275v-.001c-.14-1.428-.275-2.814-.865-5.083a.814.814 0 0 0-1.576.409c.558 2.144.683 3.427.821 4.835l.027.274c.154 1.553.352 3.286 1.145 6.342.671 2.586 1.698 4.933 2.774 7.395.262.599.527 1.205.79 1.822ZM53.434 114.89c.34.68.661 1.481.952 2.31l1.573-.423c-.302-.867-.64-1.721-1.009-2.455-.22-.44-.44-.865-.655-1.279-.857-1.658-1.629-3.149-2.061-4.842-.521-2.04-.577-3.195-.605-4.247l-.005-.193v-.001c-.026-1.004-.051-1.979-.453-3.546-.077-.3-.492-.451-.927-.337-.435.114-.725.449-.648.749.38 1.481.403 2.384.429 3.374l.005.193c.03 1.092.09 2.308.63 4.42.456 1.786 1.279 3.376 2.142 5.043.21.406.422.816.632 1.234ZM61.73 107.32c.427 1.001.847 2.174 1.24 3.383l1.573-.425c-.409-1.263-.854-2.513-1.316-3.595-.277-.65-.55-1.276-.818-1.888-1.07-2.449-2.032-4.651-2.668-7.1-.766-2.953-.953-4.598-1.1-6.094l-.028-.275c-.14-1.429-.275-2.815-.865-5.083a.814.814 0 0 0-1.576.408c.558 2.144.684 3.427.821 4.835.01.09.018.182.027.274.154 1.554.352 3.286 1.145 6.342.671 2.586 1.698 4.934 2.774 7.395.262.599.527 1.205.79 1.823Z"/><path fill="#FED992" d="M63.907 67.292c0 10.207-8.29 18.48-18.517 18.48S26.872 77.5 26.872 67.293s8.29-18.481 18.516-18.481c10.227 0 18.517 8.274 18.517 18.48Z"/><path fill="#274430" fill-rule="evenodd" d="M65.323 67.292c0 10.992-8.927 19.897-19.933 19.897-11.007 0-19.934-8.905-19.934-19.897 0-10.992 8.927-19.898 19.934-19.898 11.006 0 19.933 8.906 19.933 19.898ZM45.39 85.772c10.226 0 18.517-8.273 18.517-18.48S55.617 48.81 45.39 48.81s-18.517 8.274-18.517 18.48c0 10.208 8.29 18.482 18.517 18.482Z" clip-rule="evenodd"/><path stroke="#FFA451" stroke-opacity=".3" stroke-width="4" d="M61.907 67.292c0 9.098-7.392 16.48-16.517 16.48-9.126 0-16.517-7.382-16.517-16.48 0-9.099 7.39-16.481 16.516-16.481 9.126 0 16.517 7.382 16.517 16.48Z"/><path fill="#FED992" d="M45.115 38.837c.32-.783 1.45-.783 1.77 0l1.894 4.627c.252.615-.21 1.285-.885 1.285h-3.788c-.675 0-1.137-.67-.885-1.285l1.894-4.627ZM25.036 47.365c-.328-.78.47-1.577 1.252-1.25l4.617 1.936c.614.257.762 1.056.284 1.533l-2.678 2.673c-.478.477-1.279.329-1.537-.284l-1.938-4.608ZM73.9 64.986c.784.32.784 1.448 0 1.768l-4.636 1.89c-.617.251-1.288-.21-1.288-.884v-3.78c0-.674.671-1.135 1.288-.884l4.635 1.89ZM63.916 45.541c.781-.327 1.58.47 1.252 1.25l-1.939 4.608c-.258.612-1.059.76-1.536.284l-2.678-2.673c-.478-.477-.33-1.276.284-1.534l4.617-1.935ZM16.88 66.754c-.785-.32-.785-1.448 0-1.768l4.635-1.89c.617-.25 1.288.21 1.288.884v3.78c0 .674-.671 1.135-1.288.884l-4.635-1.89ZM24.85 87.032c-.782.327-1.581-.47-1.253-1.25l1.939-4.608c.257-.613 1.058-.76 1.536-.284l2.678 2.673c.478.477.33 1.276-.284 1.534l-4.617 1.935ZM46.885 95.746c-.32.783-1.45.783-1.77 0L43.22 91.12c-.252-.616.21-1.285.885-1.285h3.788c.675 0 1.137.67.885 1.285l-1.894 4.626ZM66.607 86.356c.328.78-.471 1.578-1.252 1.25l-4.617-1.935c-.614-.257-.762-1.057-.285-1.534l2.678-2.672c.478-.477 1.28-.33 1.537.284l1.939 4.607Z"/><path fill="#274430" fill-rule="evenodd" d="m48.197 38.3 1.893 4.627c.65 1.585-.555 3.239-2.196 3.239h-3.788c-1.64 0-2.845-1.654-2.196-3.239l1.894-4.626c.8-1.957 3.592-1.957 4.393 0Zm-21.361 6.51 4.617 1.934c1.575.66 1.903 2.68.737 3.843l-2.678 2.673c-1.162 1.16-3.18.838-3.843-.737l-1.939-4.608c-.823-1.957 1.162-3.92 3.106-3.106Zm47.598 23.255-4.635 1.89c-1.578.644-3.24-.547-3.24-2.195v-3.78c0-1.648 1.662-2.839 3.24-2.195l4.635 1.89c1.96.799 1.96 3.591 0 4.39Zm-7.96-20.725-1.939 4.608c-.663 1.575-2.68 1.897-3.843.737l-2.678-2.672c-1.166-1.164-.838-3.183.737-3.843l4.617-1.935c1.944-.815 3.93 1.148 3.106 3.105ZM16.345 63.675l4.636-1.89c1.578-.644 3.239.547 3.239 2.195v3.78c0 1.648-1.661 2.84-3.24 2.196l-4.635-1.89c-1.96-.8-1.96-3.592 0-4.391Zm5.946 21.558 1.939-4.608c.663-1.575 2.68-1.897 3.843-.737l2.678 2.672c1.166 1.164.838 3.183-.737 3.843l-4.617 1.935c-1.944.815-3.929-1.148-3.106-3.105Zm21.513 11.05-1.894-4.627c-.649-1.585.555-3.238 2.197-3.238h3.787c1.641 0 2.845 1.653 2.196 3.238l-1.893 4.627c-.801 1.956-3.593 1.956-4.393 0Zm21.003-7.37-4.617-1.935c-1.575-.66-1.903-2.68-.737-3.843l2.678-2.673c1.162-1.16 3.18-.838 3.843.737l1.939 4.608c.823 1.957-1.162 3.92-3.106 3.106ZM46.885 38.837c-.32-.783-1.45-.783-1.77 0l-1.894 4.627c-.252.615.21 1.285.886 1.285h3.787c.675 0 1.137-.67.885-1.285l-1.894-4.627Zm-20.597 7.279c-.781-.328-1.58.47-1.252 1.25l1.939 4.607c.257.613 1.058.76 1.536.284l2.678-2.673c.478-.477.33-1.276-.284-1.533l-4.617-1.935ZM73.9 64.986c.785.32.785 1.448 0 1.768l-4.635 1.89c-.616.251-1.288-.21-1.288-.884v-3.78c0-.674.672-1.135 1.288-.884l4.635 1.89Zm-8.731-18.195c.328-.78-.47-1.577-1.252-1.25l-4.617 1.935c-.614.258-.762 1.057-.284 1.534l2.678 2.673c.477.477 1.279.328 1.536-.284l1.939-4.608ZM16.88 66.754c-.784-.32-.784-1.448 0-1.768l4.636-1.89c.616-.25 1.287.21 1.287.884v3.78c0 .674-.671 1.135-1.288.884l-4.635-1.89Zm6.717 19.028c-.328.78.47 1.577 1.252 1.25l4.617-1.935c.614-.258.762-1.057.284-1.534l-2.678-2.673c-.477-.477-1.278-.329-1.536.284l-1.939 4.608Zm23.288 9.964c-.32.783-1.45.783-1.77 0L43.22 91.12c-.252-.616.21-1.285.886-1.285h3.787c.675 0 1.137.67.885 1.285l-1.894 4.626Zm18.47-8.14c.781.328 1.58-.47 1.252-1.25l-1.939-4.607c-.258-.613-1.059-.761-1.536-.284l-2.678 2.672c-.478.477-.33 1.277.284 1.534l4.617 1.935Z" clip-rule="evenodd"/><path fill="#FED992" stroke="#274430" stroke-width="2" d="m42.296 91.499.925-.38-.925.38 1.893 4.626c.66 1.611 2.962 1.611 3.622 0l1.894-4.626-.926-.38.926.38c.532-1.3-.454-2.664-1.811-2.664h-3.788c-1.357 0-2.342 1.364-1.81 2.664Z"/><path fill="#FFE4BF" d="M43.943 116.033c-.175.759-1.203.927-1.61.263l-2.414-3.926c-.321-.522-.001-1.201.613-1.301l3.445-.563c.615-.101 1.134.44.997 1.037l-1.031 4.49ZM56.346 121.091c-.174.76-1.202.928-1.61.263l-2.413-3.926c-.321-.522-.001-1.2.613-1.301l3.445-.563c.614-.1 1.134.44.997 1.037l-1.032 4.49ZM64.93 114.594c-.175.76-1.202.928-1.61.263l-2.414-3.926c-.32-.522 0-1.2.614-1.301l3.444-.563c.615-.101 1.135.44.998 1.037l-1.032 4.49Z"/><path fill="#fff" fill-opacity=".3" d="m59.014 49.01 2.679 2.673c.477.477 1.278.329 1.536-.284l-3.93-3.923c-.614.258-.762 1.057-.285 1.534ZM44.106 44.749h3.788c.675 0 1.137-.67.885-1.285h-5.558c-.252.615.21 1.285.885 1.285ZM28.511 52.257l2.678-2.673c.478-.477.33-1.276-.284-1.533l-3.93 3.922c.257.613 1.058.76 1.536.284ZM22.803 67.76v-3.78c0-.674-.671-1.135-1.287-.884v5.548c.616.251 1.287-.21 1.287-.884ZM29.75 83.563l-2.678-2.673c-.477-.477-1.279-.329-1.536.284l3.93 3.923c.614-.258.762-1.057.284-1.534ZM47.894 89.835h-3.788c-.675 0-1.137.67-.885 1.285h5.558c.252-.615-.21-1.285-.885-1.285ZM63.132 81.465l-2.678 2.673c-.478.476-.33 1.276.284 1.533l3.93-3.922c-.258-.613-1.059-.761-1.536-.284ZM67.977 63.98v3.78c0 .674.67 1.135 1.287.884v-5.548c-.616-.25-1.287.21-1.287.884Z"/></svg>
